X: 25675
T: Martin Wynne's
R: reel
M: 4/4
K: Dmajor
AD~D2 DFBF|ABdf efdB|AD~D2 DFAF|GFEA BcdB|
AD~D2 DFBF|ABdf efdB|AD~D2 ~B2FB|ABde fede||
fedB ~A2FA|fede faa2|fedB ADFA|GFEA Bcde|
fedB ADFA|fede faab|afdf eBdB|ABde fedB||

